F[BALLADE
CUT[Die verkaufte Muellerin
    Es wollt ein Mueller spatzieren gehen]
CNR[wohl nach dem gruenen Walde,]
REG[Mitteleuropa, Deutschland (DDR) , Provinz Sachsen]
SRC[4, S. 346
    ????]
KEY[Q0086W 16  G FREI]
MEL[-5_  1_321__5_5_  4_2_1__.
    -5_  2__.2_3__1__  3_.22__0_
    5_  3_4_5__.5_  65432__.
    1_  113_5__.3_  4_2_2__1_ //] >>
FCT[Ballade, Menschenhandel, Rettung, Hinrichtung]
